; G-Code generated by Simplify3D(R) Version 4.0.0
; Apr 13, 2018 at 8:46:06 PM
; Settings Summary
;   processName,Process1
;   applyToModels,RL-PaloLiso_Rosa
;   profileName,PLA (modified)
;   profileVersion,2017-03-01 08:00:00
;   baseProfile,Default (modified)
;   printMaterial,PLA
;   printQuality,Fast
;   printExtruders,
;   extruderName,Primary Extruder
;   extruderToolheadNumber,0
;   extruderDiameter,0.35
;   extruderAutoWidth,0
;   extruderWidth,0.4
;   extrusionMultiplier,0.9
;   extruderUseRetract,1
;   extruderRetractionDistance,1
;   extruderExtraRestartDistance,0
;   extruderRetractionZLift,0
;   extruderRetractionSpeed,1800
;   extruderUseCoasting,0
;   extruderCoastingDistance,0.2
;   extruderUseWipe,0
;   extruderWipeDistance,5
;   primaryExtruder,0
;   layerHeight,0.3
;   topSolidLayers,3
;   bottomSolidLayers,3
;   perimeterOutlines,2
;   printPerimetersInsideOut,1
;   startPointOption,2
;   startPointOriginX,0
;   startPointOriginY,0
;   sequentialIslands,0
;   spiralVaseMode,0
;   firstLayerHeightPercentage,90
;   firstLayerWidthPercentage,100
;   firstLayerUnderspeed,0.5
;   useRaft,0
;   raftExtruder,0
;   raftTopLayers,3
;   raftBaseLayers,2
;   raftOffset,3
;   raftSeparationDistance,0.14
;   raftTopInfill,100
;   aboveRaftSpeedMultiplier,0.3
;   useSkirt,0
;   skirtExtruder,0
;   skirtLayers,1
;   skirtOutlines,2
;   skirtOffset,4
;   usePrimePillar,0
;   primePillarExtruder,999
;   primePillarWidth,12
;   primePillarLocation,7
;   primePillarSpeedMultiplier,1
;   useOozeShield,0
;   oozeShieldExtruder,999
;   oozeShieldOffset,2
;   oozeShieldOutlines,1
;   oozeShieldSidewallShape,1
;   oozeShieldSidewallAngle,30
;   oozeShieldSpeedMultiplier,1
;   infillExtruder,0
;   internalInfillPattern,Rectilinear
;   externalInfillPattern,Rectilinear
;   infillPercentage,20
;   outlineOverlapPercentage,15
;   infillExtrusionWidthPercentage,100
;   minInfillLength,5
;   infillLayerInterval,1
;   internalInfillAngles,45,-45
;   overlapInternalInfillAngles,0
;   externalInfillAngles,45,-45
;   generateSupport,0
;   supportExtruder,0
;   supportInfillPercentage,25
;   supportExtraInflation,0
;   supportBaseLayers,0
;   denseSupportExtruder,0
;   denseSupportLayers,0
;   denseSupportInfillPercentage,70
;   supportLayerInterval,1
;   supportHorizontalPartOffset,0.3
;   supportUpperSeparationLayers,1
;   supportLowerSeparationLayers,1
;   supportType,0
;   supportGridSpacing,4
;   maxOverhangAngle,45
;   supportAngles,0
;   temperatureName,Primary Extruder,HotBed
;   temperatureNumber,0,1
;   temperatureSetpointCount,1,1
;   temperatureSetpointLayers,1,1
;   temperatureSetpointTemperatures,190,60
;   temperatureStabilizeAtStartup,1,1
;   temperatureHeatedBed,0,1
;   temperatureRelayBetweenLayers,0,0
;   temperatureRelayBetweenLoops,0,0
;   fanLayers,1,2
;   fanSpeeds,0,100
;   blipFanToFullPower,0
;   adjustSpeedForCooling,1
;   minSpeedLayerTime,15
;   minCoolingSpeedSlowdown,20
;   increaseFanForCooling,0
;   minFanLayerTime,45
;   maxCoolingFanSpeed,100
;   increaseFanForBridging,0
;   bridgingFanSpeed,100
;   use5D,1
;   relativeEdistances,0
;   allowEaxisZeroing,1
;   independentExtruderAxes,0
;   includeM10123,0
;   stickySupport,1
;   applyToolheadOffsets,0
;   gcodeXoffset,0
;   gcodeYoffset,0
;   gcodeZoffset,0
;   overrideMachineDefinition,0
;   machineTypeOverride,0
;   strokeXoverride,200
;   strokeYoverride,200
;   strokeZoverride,200
;   originOffsetXoverride,0
;   originOffsetYoverride,0
;   originOffsetZoverride,0
;   homeXdirOverride,-1
;   homeYdirOverride,-1
;   homeZdirOverride,-1
;   flipXoverride,1
;   flipYoverride,-1
;   flipZoverride,1
;   toolheadOffsets,0,0|0,0|0,0|0,0|0,0|0,0
;   overrideFirmwareConfiguration,0
;   firmwareTypeOverride,RepRap (Marlin/Repetier/Sprinter)
;   GPXconfigOverride,r2
;   baudRateOverride,115200
;   overridePrinterModels,0
;   printerModelsOverride
;   startingGcode,G21	; valores metricos,G90	; posicionamiento absoluto,M82	; poner extrusor en modo absoluto,M107	; empezar con ventilador apagado,G28 X0 Y0	; mover x/y a 0,G1 F200 E3	;,G28,G29,G1 Z15.0 F{travel_speed}	;bajar la plataforma 15mm,G92 E0	;Zero en longitud de extrusion,G1 F200 E3	; extruir 3mm de filamento,G1 F{travel_speed},M117 Printing...,
;   layerChangeGcode,
;   retractionGcode,
;   toolChangeGcode,
;   endingGcode,G28 X0 Y0	; homing,M104 T0 S0 ; turn off extruder,M104 T1 S0 ; turn off hotbed,M140 S0 ; turn off bed,M84 ; disable motors,M106 S0 ,;Retraer filamento,;G92 E1,;G1 E-1 F300
;   exportFileFormat,gcode
;   celebration,0
;   celebrationSong,Random Song
;   postProcessing,
;   defaultSpeed,3600
;   outlineUnderspeed,0.5
;   solidInfillUnderspeed,0.8
;   supportUnderspeed,0.8
;   rapidXYspeed,4800
;   rapidZspeed,1000
;   minBridgingArea,50
;   bridgingExtraInflation,0
;   bridgingExtrusionMultiplier,1
;   bridgingSpeedMultiplier,1
;   useFixedBridgingAngle,0
;   fixedBridgingAngle,0
;   applyBridgingToPerimeters,0
;   filamentDiameters,1.75|1.75|1.75|1.75|1.75|1.75
;   filamentPricesPerKg,46|46|46|46|46|46
;   filamentDensities,1.25|1.25|1.25|1.25|1.25|1.25
;   useMinPrintHeight,0
;   minPrintHeight,0
;   useMaxPrintHeight,0
;   maxPrintHeight,0
;   useDiaphragm,0
;   diaphragmLayerInterval,20
;   robustSlicing,1
;   mergeAllIntoSolid,0
;   onlyRetractWhenCrossingOutline,1
;   retractBetweenLayers,1
;   useRetractionMinTravel,0
;   retractionMinTravel,3
;   retractWhileWiping,0
;   onlyWipeOutlines,1
;   avoidCrossingOutline,0
;   maxMovementDetourFactor,3
;   toolChangeRetractionDistance,12
;   toolChangeExtraRestartDistance,-0.5
;   toolChangeRetractionSpeed,600
;   externalThinWallType,0
;   internalThinWallType,2
;   thinWallAllowedOverlapPercentage,10
;   singleExtrusionMinLength,1
;   singleExtrusionMinPrintingWidthPercentage,50
;   singleExtrusionMaxPrintingWidthPercentage,200
;   singleExtrusionEndpointExtension,0.2
;   horizontalSizeCompensation,0
G90
M82
M106 S0
M140 S60
M190 S60
M104 S190 T0
M109 S190 T0
G21	; valores metricos
G90	; posicionamiento absoluto
M82	; poner extrusor en modo absoluto
M107	; empezar con ventilador apagado
G28 X0 Y0	; mover x/y a 0
G1 F200 E3	;
G28
G29
G1 Z15.0 F{travel_speed}	;bajar la plataforma 15mm
G92 E0	;Zero en longitud de extrusion
G1 F200 E3	; extruir 3mm de filamento
G1 F{travel_speed}
M117 Printing...
G92 E0
G1 E-1.0000 F1800
G1 Z0.270 F1000
; process Process1
; layer 1, Z = 0.270
T0
; tool H0.300 W0.400
; outer perimeter
G1 X99.285 Y27.126 F4800
G1 E0.0000 F540
G92 E0
G1 X100.392 Y27.126 E0.0497 F900
G1 X100.392 Y172.874 E6.5939
G1 X99.285 Y172.874 E6.6436
G1 X99.285 Y27.126 E13.1878
; gap fill
G1 X99.878 Y27.470 F4800
G92 E0
G1 X100.048 Y27.640 E0.0108 F1440
G1 X100.048 Y28.206 E0.0362
G1 X99.629 Y27.787 E0.0627
G1 X99.629 Y28.353 E0.0881
G1 X100.048 Y28.771 E0.1147
G1 X100.048 Y29.337 E0.1401
G1 X99.629 Y28.919 E0.1666
G1 X99.629 Y29.484 E0.1920
G1 X100.048 Y29.903 E0.2186
G1 X100.048 Y30.468 E0.2440
G1 X99.629 Y30.050 E0.2706
G1 X99.629 Y30.616 E0.2960
G1 X100.048 Y31.034 E0.3225
G1 X100.048 Y31.600 E0.3479
G1 X99.629 Y31.181 E0.3745
G1 X99.629 Y31.747 E0.3999
G1 X100.048 Y32.165 E0.4264
G1 X100.048 Y32.731 E0.4518
G1 X99.629 Y32.313 E0.4784
G1 X99.629 Y32.878 E0.5038
G1 X100.048 Y33.297 E0.5303
G1 X100.048 Y33.862 E0.5557
G1 X99.629 Y33.444 E0.5823
G1 X99.629 Y34.010 E0.6077
G1 X100.048 Y34.428 E0.6343
G1 X100.048 Y34.994 E0.6597
G1 X99.629 Y34.576 E0.6862
G1 X99.629 Y35.141 E0.7116
G1 X100.048 Y35.559 E0.7382
G1 X100.048 Y36.125 E0.7636
G1 X99.629 Y35.707 E0.7901
G1 X99.629 Y36.273 E0.8155
G1 X100.048 Y36.691 E0.8421
G1 X100.048 Y37.257 E0.8675
G1 X99.629 Y36.838 E0.8941
G1 X99.629 Y37.404 E0.9195
G1 X100.048 Y37.822 E0.9460
G1 X100.048 Y38.388 E0.9714
G1 X99.629 Y37.970 E0.9980
G1 X99.629 Y38.535 E1.0234
G1 X100.048 Y38.954 E1.0499
G1 X100.048 Y39.519 E1.0753
G1 X99.629 Y39.101 E1.1019
G1 X99.629 Y39.667 E1.1273
G1 X100.048 Y40.085 E1.1539
G1 X100.048 Y40.651 E1.1793
G1 X99.629 Y40.232 E1.2058
G1 X99.629 Y40.798 E1.2312
G1 X100.048 Y41.216 E1.2578
G1 X100.048 Y41.782 E1.2832
G1 X99.629 Y41.364 E1.3097
G1 X99.629 Y41.929 E1.3351
G1 X100.048 Y42.348 E1.3617
G1 X100.048 Y42.913 E1.3871
G1 X99.629 Y42.495 E1.4137
G1 X99.629 Y43.061 E1.4391
G1 X100.048 Y43.479 E1.4656
G1 X100.048 Y44.045 E1.4910
G1 X99.629 Y43.626 E1.5176
G1 X99.629 Y44.192 E1.5430
G1 X100.048 Y44.610 E1.5695
G1 X100.048 Y45.176 E1.5949
G1 X99.629 Y44.758 E1.6215
G1 X99.629 Y45.324 E1.6469
G1 X100.048 Y45.742 E1.6735
G1 X100.048 Y46.307 E1.6989
G1 X99.629 Y45.889 E1.7254
G1 X99.629 Y46.455 E1.7508
G1 X100.048 Y46.873 E1.7774
G1 X100.048 Y47.439 E1.8028
G1 X99.629 Y47.021 E1.8293
G1 X99.629 Y47.586 E1.8547
G1 X100.048 Y48.005 E1.8813
G1 X100.048 Y48.570 E1.9067
G1 X99.629 Y48.152 E1.9333
G1 X99.629 Y48.718 E1.9587
G1 X100.048 Y49.136 E1.9852
G1 X100.048 Y49.702 E2.0106
G1 X99.629 Y49.283 E2.0372
G1 X99.629 Y49.849 E2.0626
G1 X100.048 Y50.267 E2.0891
G1 X100.048 Y50.833 E2.1145
G1 X99.629 Y50.415 E2.1411
G1 X99.629 Y50.980 E2.1665
G1 X100.048 Y51.399 E2.1930
G1 X100.048 Y51.964 E2.2184
G1 X99.629 Y51.546 E2.2450
G1 X99.629 Y52.112 E2.2704
G1 X100.048 Y52.530 E2.2970
G1 X100.048 Y53.096 E2.3224
G1 X99.629 Y52.677 E2.3489
G1 X99.629 Y53.243 E2.3743
G1 X100.048 Y53.661 E2.4009
G1 X100.048 Y54.227 E2.4263
G1 X99.629 Y53.809 E2.4528
G1 X99.629 Y54.375 E2.4782
G1 X100.048 Y54.793 E2.5048
G1 X100.048 Y55.358 E2.5302
G1 X99.629 Y54.940 E2.5568
G1 X99.629 Y55.506 E2.5822
G1 X100.048 Y55.924 E2.6087
G1 X100.048 Y56.490 E2.6341
G1 X99.629 Y56.072 E2.6607
G1 X99.629 Y56.637 E2.6861
G1 X100.048 Y57.056 E2.7126
G1 X100.048 Y57.621 E2.7380
G1 X99.629 Y57.203 E2.7646
G1 X99.629 Y57.769 E2.7900
G1 X100.048 Y58.187 E2.8166
G1 X100.048 Y58.753 E2.8420
G1 X99.629 Y58.334 E2.8685
G1 X99.629 Y58.900 E2.8939
G1 X100.048 Y59.318 E2.9205
G1 X100.048 Y59.884 E2.9459
G1 X99.629 Y59.466 E2.9724
G1 X99.629 Y60.031 E2.9978
G1 X100.048 Y60.450 E3.0244
G1 X100.048 Y61.015 E3.0498
G1 X99.629 Y60.597 E3.0764
G1 X99.629 Y61.163 E3.1018
G1 X100.048 Y61.581 E3.1283
G1 X100.048 Y62.147 E3.1537
G1 X99.629 Y61.728 E3.1803
G1 X99.629 Y62.294 E3.2057
G1 X100.048 Y62.712 E3.2322
G1 X100.048 Y63.278 E3.2576
G1 X99.629 Y62.860 E3.2842
G1 X99.629 Y63.425 E3.3096
G1 X100.048 Y63.844 E3.3362
G1 X100.048 Y64.409 E3.3616
G1 X99.629 Y63.991 E3.3881
G1 X99.629 Y64.557 E3.4135
G1 X100.048 Y64.975 E3.4401
G1 X100.048 Y65.541 E3.4655
G1 X99.629 Y65.123 E3.4920
G1 X99.629 Y65.688 E3.5174
G1 X100.048 Y66.106 E3.5440
G1 X100.048 Y66.672 E3.5694
G1 X99.629 Y66.254 E3.5960
G1 X99.629 Y66.820 E3.6214
G1 X100.048 Y67.238 E3.6479
G1 X100.048 Y67.804 E3.6733
G1 X99.629 Y67.385 E3.6999
G1 X99.629 Y67.951 E3.7253
G1 X100.048 Y68.369 E3.7518
G1 X100.048 Y68.935 E3.7772
G1 X99.629 Y68.517 E3.8038
G1 X99.629 Y69.082 E3.8292
G1 X100.048 Y69.501 E3.8558
G1 X100.048 Y70.066 E3.8812
G1 X99.629 Y69.648 E3.9077
G1 X99.629 Y70.214 E3.9331
G1 X100.048 Y70.632 E3.9597
G1 X100.048 Y71.198 E3.9851
G1 X99.629 Y70.779 E4.0116
G1 X99.629 Y71.345 E4.0370
G1 X100.048 Y71.763 E4.0636
G1 X100.048 Y72.329 E4.0890
G1 X99.629 Y71.911 E4.1155
G1 X99.629 Y72.476 E4.1409
G1 X100.048 Y72.895 E4.1675
G1 X100.048 Y73.460 E4.1929
G1 X99.629 Y73.042 E4.2195
G1 X99.629 Y73.608 E4.2449
G1 X100.048 Y74.026 E4.2714
G1 X100.048 Y74.592 E4.2968
G1 X99.629 Y74.173 E4.3234
G1 X99.629 Y74.739 E4.3488
G1 X100.048 Y75.157 E4.3753
G1 X100.048 Y75.723 E4.4007
G1 X99.629 Y75.305 E4.4273
G1 X99.629 Y75.871 E4.4527
G1 X100.048 Y76.289 E4.4793
G1 X100.048 Y76.854 E4.5047
G1 X99.629 Y76.436 E4.5312
G1 X99.629 Y77.002 E4.5566
G1 X100.048 Y77.420 E4.5832
G1 X100.048 Y77.986 E4.6086
G1 X99.629 Y77.568 E4.6351
G1 X99.629 Y78.133 E4.6605
G1 X100.048 Y78.552 E4.6871
G1 X100.048 Y79.117 E4.7125
G1 X99.629 Y78.699 E4.7391
G1 X99.629 Y79.265 E4.7645
G1 X100.048 Y79.683 E4.7910
G1 X100.048 Y80.249 E4.8164
G1 X99.629 Y79.830 E4.8430
G1 X99.629 Y80.396 E4.8684
G1 X100.048 Y80.814 E4.8949
G1 X100.048 Y81.380 E4.9203
G1 X99.629 Y80.962 E4.9469
G1 X99.629 Y81.527 E4.9723
G1 X100.048 Y81.946 E4.9989
G1 X100.048 Y82.511 E5.0243
G1 X99.629 Y82.093 E5.0508
G1 X99.629 Y82.659 E5.0762
G1 X100.048 Y83.077 E5.1028
G1 X100.048 Y83.643 E5.1282
G1 X99.629 Y83.224 E5.1547
G1 X99.629 Y83.790 E5.1801
G1 X100.048 Y84.208 E5.2067
G1 X100.048 Y84.774 E5.2321
G1 X99.629 Y84.356 E5.2587
G1 X99.629 Y84.922 E5.2841
G1 X100.048 Y85.340 E5.3106
G1 X100.048 Y85.905 E5.3360
G1 X99.629 Y85.487 E5.3626
G1 X99.629 Y86.053 E5.3880
G1 X100.048 Y86.471 E5.4145
G1 X100.048 Y87.037 E5.4399
G1 X99.629 Y86.619 E5.4665
G1 X99.629 Y87.184 E5.4919
G1 X100.048 Y87.603 E5.5185
G1 X100.048 Y88.168 E5.5439
G1 X99.629 Y87.750 E5.5704
G1 X99.629 Y88.316 E5.5958
G1 X100.048 Y88.734 E5.6224
G1 X100.048 Y89.300 E5.6478
G1 X99.629 Y88.881 E5.6743
G1 X99.629 Y89.447 E5.6997
G1 X100.048 Y89.865 E5.7263
G1 X100.048 Y90.431 E5.7517
G1 X99.629 Y90.013 E5.7782
G1 X99.629 Y90.578 E5.8036
G1 X100.048 Y90.997 E5.8302
G1 X100.048 Y91.562 E5.8556
G1 X99.629 Y91.144 E5.8822
G1 X99.629 Y91.710 E5.9076
G1 X100.048 Y92.128 E5.9341
G1 X100.048 Y92.694 E5.9595
G1 X99.629 Y92.275 E5.9861
G1 X99.629 Y92.841 E6.0115
G1 X100.048 Y93.259 E6.0380
G1 X100.048 Y93.825 E6.0634
G1 X99.629 Y93.407 E6.0900
G1 X99.629 Y93.972 E6.1154
G1 X100.048 Y94.391 E6.1420
G1 X100.048 Y94.956 E6.1674
G1 X99.629 Y94.538 E6.1939
G1 X99.629 Y95.104 E6.2193
G1 X100.048 Y95.522 E6.2459
G1 X100.048 Y96.088 E6.2713
G1 X99.629 Y95.670 E6.2978
G1 X99.629 Y96.235 E6.3232
G1 X100.048 Y96.653 E6.3498
G1 X100.048 Y97.219 E6.3752
G1 X99.629 Y96.801 E6.4018
G1 X99.629 Y97.367 E6.4272
G1 X100.048 Y97.785 E6.4537
G1 X100.048 Y98.351 E6.4791
G1 X99.629 Y97.932 E6.5057
G1 X99.629 Y98.498 E6.5311
G1 X100.048 Y98.916 E6.5576
G1 X100.048 Y99.482 E6.5830
G1 X99.629 Y99.064 E6.6096
G1 X99.629 Y99.629 E6.6350
G1 X100.048 Y100.048 E6.6616
G1 X100.048 Y100.613 E6.6870
G1 X99.629 Y100.195 E6.7135
G1 X99.629 Y100.761 E6.7389
G1 X100.048 Y101.179 E6.7655
G1 X100.048 Y101.745 E6.7909
G1 X99.629 Y101.326 E6.8174
G1 X99.629 Y101.892 E6.8428
G1 X100.048 Y102.310 E6.8694
G1 X100.048 Y102.876 E6.8948
G1 X99.629 Y102.458 E6.9214
G1 X99.629 Y103.023 E6.9468
G1 X100.048 Y103.442 E6.9733
G1 X100.048 Y104.007 E6.9987
G1 X99.629 Y103.589 E7.0253
G1 X99.629 Y104.155 E7.0507
G1 X100.048 Y104.573 E7.0772
G1 X100.048 Y105.139 E7.1026
G1 X99.629 Y104.721 E7.1292
G1 X99.629 Y105.286 E7.1546
G1 X100.048 Y105.704 E7.1812
G1 X100.048 Y106.270 E7.2066
G1 X99.629 Y105.852 E7.2331
G1 X99.629 Y106.418 E7.2585
G1 X100.048 Y106.836 E7.2851
G1 X100.048 Y107.402 E7.3105
G1 X99.629 Y106.983 E7.3370
G1 X99.629 Y107.549 E7.3624
G1 X100.048 Y107.967 E7.3890
G1 X100.048 Y108.533 E7.4144
G1 X99.629 Y108.115 E7.4409
G1 X99.629 Y108.680 E7.4663
G1 X100.048 Y109.099 E7.4929
G1 X100.048 Y109.664 E7.5183
G1 X99.629 Y109.246 E7.5449
G1 X99.629 Y109.812 E7.5703
G1 X100.048 Y110.230 E7.5968
G1 X100.048 Y110.796 E7.6222
G1 X99.629 Y110.377 E7.6488
G1 X99.629 Y110.943 E7.6742
G1 X100.048 Y111.361 E7.7007
G1 X100.048 Y111.927 E7.7261
G1 X99.629 Y111.509 E7.7527
G1 X99.629 Y112.074 E7.7781
G1 X100.048 Y112.493 E7.8047
G1 X100.048 Y113.058 E7.8301
G1 X99.629 Y112.640 E7.8566
G1 X99.629 Y113.206 E7.8820
G1 X100.048 Y113.624 E7.9086
G1 X100.048 Y114.190 E7.9340
G1 X99.629 Y113.771 E7.9605
G1 X99.629 Y114.337 E7.9859
G1 X100.048 Y114.755 E8.0125
G1 X100.048 Y115.321 E8.0379
G1 X99.629 Y114.903 E8.0645
G1 X99.629 Y115.469 E8.0899
G1 X100.048 Y115.887 E8.1164
G1 X100.048 Y116.452 E8.1418
G1 X99.629 Y116.034 E8.1684
G1 X99.629 Y116.600 E8.1938
G1 X100.048 Y117.018 E8.2203
G1 X100.048 Y117.584 E8.2457
