; G-Code generated by Simplify3D(R) Version 4.0.0
; Apr 18, 2018 at 6:32:57 PM
; Settings Summary
;   processName,PLA_Normal_Sin_Soportes
;   applyToModels,RL-Palo_Rosa(6),RL-Palo_Rosa(6)(2),RL-Palo_Rosa(6)(3),RL-Palo_Rosa(6)(4),RL-Palo_Rosa(6)(5)
;   profileName,PLA_Medium_Palo (modified)
;   profileVersion,2017-03-01 08:00:00
;   baseProfile,Default (modified)
;   printMaterial,PLA
;   printQuality,Fast
;   printExtruders,
;   extruderName,Primary Extruder
;   extruderToolheadNumber,0
;   extruderDiameter,0.4
;   extruderAutoWidth,1
;   extruderWidth,0.48
;   extrusionMultiplier,0.9
;   extruderUseRetract,1
;   extruderRetractionDistance,1
;   extruderExtraRestartDistance,0
;   extruderRetractionZLift,0
;   extruderRetractionSpeed,1800
;   extruderUseCoasting,0
;   extruderCoastingDistance,0.2
;   extruderUseWipe,0
;   extruderWipeDistance,5
;   primaryExtruder,0
;   layerHeight,0.3
;   topSolidLayers,3
;   bottomSolidLayers,3
;   perimeterOutlines,2
;   printPerimetersInsideOut,1
;   startPointOption,2
;   startPointOriginX,0
;   startPointOriginY,0
;   sequentialIslands,0
;   spiralVaseMode,0
;   firstLayerHeightPercentage,90
;   firstLayerWidthPercentage,100
;   firstLayerUnderspeed,0.5
;   useRaft,0
;   raftExtruder,0
;   raftTopLayers,1
;   raftBaseLayers,1
;   raftOffset,0.2
;   raftSeparationDistance,0.14
;   raftTopInfill,100
;   aboveRaftSpeedMultiplier,0.3
;   useSkirt,1
;   skirtExtruder,0
;   skirtLayers,1
;   skirtOutlines,2
;   skirtOffset,2
;   usePrimePillar,0
;   primePillarExtruder,999
;   primePillarWidth,12
;   primePillarLocation,7
;   primePillarSpeedMultiplier,1
;   useOozeShield,0
;   oozeShieldExtruder,999
;   oozeShieldOffset,2
;   oozeShieldOutlines,1
;   oozeShieldSidewallShape,1
;   oozeShieldSidewallAngle,30
;   oozeShieldSpeedMultiplier,1
;   infillExtruder,0
;   internalInfillPattern,Rectilinear
;   externalInfillPattern,Rectilinear
;   infillPercentage,15
;   outlineOverlapPercentage,15
;   infillExtrusionWidthPercentage,100
;   minInfillLength,5
;   infillLayerInterval,1
;   internalInfillAngles,45,-45
;   overlapInternalInfillAngles,0
;   externalInfillAngles,45,-45
;   generateSupport,1
;   supportExtruder,0
;   supportInfillPercentage,25
;   supportExtraInflation,0
;   supportBaseLayers,0
;   denseSupportExtruder,0
;   denseSupportLayers,0
;   denseSupportInfillPercentage,70
;   supportLayerInterval,1
;   supportHorizontalPartOffset,0.3
;   supportUpperSeparationLayers,1
;   supportLowerSeparationLayers,1
;   supportType,1
;   supportGridSpacing,4
;   maxOverhangAngle,45
;   supportAngles,0
;   temperatureName,Extruder,HotBed
;   temperatureNumber,0,1
;   temperatureSetpointCount,1,1
;   temperatureSetpointLayers,1,1
;   temperatureSetpointTemperatures,200,60
;   temperatureStabilizeAtStartup,1,1
;   temperatureHeatedBed,0,1
;   temperatureRelayBetweenLayers,0,0
;   temperatureRelayBetweenLoops,0,0
;   fanLayers,1,2
;   fanSpeeds,0,100
;   blipFanToFullPower,0
;   adjustSpeedForCooling,1
;   minSpeedLayerTime,15
;   minCoolingSpeedSlowdown,20
;   increaseFanForCooling,0
;   minFanLayerTime,45
;   maxCoolingFanSpeed,100
;   increaseFanForBridging,0
;   bridgingFanSpeed,100
;   use5D,1
;   relativeEdistances,0
;   allowEaxisZeroing,1
;   independentExtruderAxes,0
;   includeM10123,0
;   stickySupport,1
;   applyToolheadOffsets,0
;   gcodeXoffset,0
;   gcodeYoffset,0
;   gcodeZoffset,0
;   overrideMachineDefinition,0
;   machineTypeOverride,0
;   strokeXoverride,200
;   strokeYoverride,200
;   strokeZoverride,200
;   originOffsetXoverride,0
;   originOffsetYoverride,0
;   originOffsetZoverride,0
;   homeXdirOverride,-1
;   homeYdirOverride,-1
;   homeZdirOverride,-1
;   flipXoverride,1
;   flipYoverride,-1
;   flipZoverride,1
;   toolheadOffsets,0,0|0,0|0,0|0,0|0,0|0,0
;   overrideFirmwareConfiguration,0
;   firmwareTypeOverride,RepRap (Marlin/Repetier/Sprinter)
;   GPXconfigOverride,r2
;   baudRateOverride,115200
;   overridePrinterModels,0
;   printerModelsOverride
;   startingGcode,G21        ;metric values,G90        ;absolute positioning,M82        ;set extruder to absolute mode,M107       ;start with the fan off,G28 X0 Y0  ;move X/Y to min endstops,G1 F200 E3,G28,G29,G1 Z15.0 F{travel_speed} ;move the platform down 15mm,G92 E0                  ;zero the extruded length,G1 F200 E3              ;extrude 3mm of feed stock,G92 E0                  ;zero the extruded length,G1 F{travel_speed},M117 Printing...
;   layerChangeGcode,
;   retractionGcode,
;   toolChangeGcode,
;   endingGcode,,G28 X0 Y0; home the X-axis and Y-Axis,M104 T0 S0 ; turn off heater,M104 T1 S0 ; turn off heater,M140 S0 ; turn off bed,M84 ; disable motors,M106 S0,;Retract the filament,;G92 E1,;G1 E-1 F300,
;   exportFileFormat,gcode
;   celebration,0
;   celebrationSong,Random Song
;   postProcessing,
;   defaultSpeed,3600
;   outlineUnderspeed,0.6
;   solidInfillUnderspeed,0.8
;   supportUnderspeed,0.8
;   rapidXYspeed,4800
;   rapidZspeed,1000
;   minBridgingArea,50
;   bridgingExtraInflation,0
;   bridgingExtrusionMultiplier,1
;   bridgingSpeedMultiplier,1
;   useFixedBridgingAngle,0
;   fixedBridgingAngle,0
;   applyBridgingToPerimeters,0
;   filamentDiameters,1.75|1.75|1.75|1.75|1.75|1.75
;   filamentPricesPerKg,46|46|46|46|46|46
;   filamentDensities,1.25|1.25|1.25|1.25|1.25|1.25
;   useMinPrintHeight,0
;   minPrintHeight,0
;   useMaxPrintHeight,0
;   maxPrintHeight,0
;   useDiaphragm,0
;   diaphragmLayerInterval,20
;   robustSlicing,1
;   mergeAllIntoSolid,0
;   onlyRetractWhenCrossingOutline,1
;   retractBetweenLayers,1
;   useRetractionMinTravel,0
;   retractionMinTravel,3
;   retractWhileWiping,0
;   onlyWipeOutlines,1
;   avoidCrossingOutline,0
;   maxMovementDetourFactor,3
;   toolChangeRetractionDistance,12
;   toolChangeExtraRestartDistance,-0.5
;   toolChangeRetractionSpeed,600
;   externalThinWallType,0
;   internalThinWallType,2
;   thinWallAllowedOverlapPercentage,10
;   singleExtrusionMinLength,1
;   singleExtrusionMinPrintingWidthPercentage,50
;   singleExtrusionMaxPrintingWidthPercentage,200
;   singleExtrusionEndpointExtension,0.2
;   horizontalSizeCompensation,0.05
G90
M82
M106 S0
M140 S60
M190 S60
M104 S200 T0
M109 S200 T0
G21        ;metric values
G90        ;absolute positioning
M82        ;set extruder to absolute mode
M107       ;start with the fan off
G28 X0 Y0  ;move X/Y to min endstops
G1 F200 E3
G28
G29
G1 Z15.0 F{travel_speed} ;move the platform down 15mm
G92 E0                  ;zero the extruded length
G1 F200 E3              ;extrude 3mm of feed stock
G92 E0                  ;zero the extruded length
G1 F{travel_speed}
M117 Printing...
G92 E0
G1 E-1.0000 F1800
G1 Z0.270 F1000
; process PLA_Normal_Sin_Soportes
; layer 1, Z = 0.270
T0
; tool H0.300 W0.480
; skirt
G1 X55.932 Y34.718 F4800
G1 E0.0000 F540
G92 E0
G1 X57.227 Y33.269 E0.1047 F1800
G1 X57.485 Y33.145 E0.1201
G1 X205.441 Y24.826 E8.1048
G1 X205.712 Y24.920 E8.1203
G1 X207.161 Y26.215 E8.2250
G1 X207.285 Y26.473 E8.2404
G1 X207.485 Y30.017 E8.4317
G1 X207.390 Y30.287 E8.4471
G1 X206.095 Y31.736 E8.5518
G1 X205.837 Y31.861 E8.5672
G1 X166.610 Y34.066 E10.6842
G1 X166.610 Y35.762 E10.7756
G1 X166.500 Y36.027 E10.7910
G1 X165.126 Y37.401 E10.8957
G1 X164.861 Y37.510 E10.9111
G1 X154.478 Y37.510 E11.4706
G1 X154.213 Y37.401 E11.4860
G1 X152.839 Y36.027 E11.5907
G1 X152.730 Y35.762 E11.6062
G1 X152.730 Y34.847 E11.6555
G1 X94.610 Y38.115 E14.7920
G1 X94.610 Y39.762 E14.8808
G1 X94.500 Y40.027 E14.8962
G1 X93.126 Y41.401 E15.0009
G1 X92.861 Y41.510 E15.0163
G1 X82.478 Y41.510 E15.5758
G1 X82.213 Y41.401 E15.5912
G1 X80.839 Y40.027 E15.6959
G1 X80.730 Y39.762 E15.7114
G1 X80.730 Y38.895 E15.7581
G1 X57.881 Y40.180 E16.9911
G1 X57.610 Y40.085 E17.0066
G1 X56.161 Y38.791 E17.1113
G1 X56.037 Y38.533 E17.1267
G1 X55.838 Y34.989 E17.3180
G1 X55.932 Y34.718 E17.3334
G1 X53.264 Y61.484 F4800
G92 E0
G1 X80.380 Y61.742 E1.4612 F1800
G1 X80.380 Y60.658 E1.5195
G1 X80.490 Y60.394 E1.5350
G1 X81.864 Y59.020 E1.6397
G1 X82.129 Y58.910 E1.6551
G1 X92.512 Y58.910 E2.2146
G1 X92.777 Y59.020 E2.2300
G1 X94.151 Y60.394 E2.3347
G1 X94.260 Y60.658 E2.3502
G1 X94.260 Y61.874 E2.4157
G1 X201.447 Y62.893 E8.1913
G1 X201.711 Y63.005 E8.2067
G1 X203.072 Y64.392 E8.3114
G1 X203.179 Y64.658 E8.3269
G1 X203.145 Y68.207 E8.5181
G1 X203.033 Y68.471 E8.5336
G1 X202.260 Y69.229 E8.5919
G1 X202.260 Y71.042 E8.6895
G1 X202.151 Y71.306 E8.7050
G1 X200.777 Y72.680 E8.8097
G1 X200.512 Y72.790 E8.8251
G1 X150.129 Y72.790 E11.5398
G1 X149.864 Y72.680 E11.5553
G1 X148.490 Y71.306 E11.6600
G1 X148.380 Y71.042 E11.6754
G1 X148.380 Y69.435 E11.7620
G1 X53.197 Y68.530 E16.8908
G1 X52.933 Y68.418 E16.9063
G1 X51.572 Y67.031 E17.0110
G1 X51.465 Y66.765 E17.0264
G1 X51.499 Y63.216 E17.2177
G1 X51.611 Y62.952 E17.2331
G1 X52.998 Y61.591 E17.3378
G1 X53.264 Y61.484 E17.3532
G1 X49.991 Y95.383 F4800
G92 E0
G1 X76.375 Y95.383 E1.4216 F1800
G1 X76.639 Y95.493 E1.4370
G1 X78.013 Y96.867 E1.5417
G1 X78.123 Y97.131 E1.5571
G1 X78.123 Y98.253 E1.6176
G1 X161.210 Y96.830 E6.0950
G1 X161.476 Y96.935 E6.1105
G1 X162.874 Y98.285 E6.2152
G1 X162.988 Y98.548 E6.2306
G1 X163.048 Y102.097 E6.4219
G1 X162.943 Y102.364 E6.4373
G1 X161.593 Y103.761 E6.5420
G1 X161.330 Y103.875 E6.5574
G1 X22.123 Y106.259 E14.0592
G1 X22.123 Y107.515 E14.1269
G1 X22.013 Y107.779 E14.1423
G1 X20.639 Y109.153 E14.2470
G1 X20.375 Y109.263 E14.2625
G1 X13.991 Y109.263 E14.6064
G1 X13.727 Y109.153 E14.6218
G1 X12.353 Y107.779 E14.7265
G1 X12.243 Y107.515 E14.7420
G1 X12.243 Y105.677 E14.8410
G1 X11.498 Y104.957 E14.8968
G1 X11.384 Y104.694 E14.9122
G1 X11.323 Y101.145 E15.1035
G1 X11.428 Y100.879 E15.1189
G1 X12.778 Y99.482 E15.2236
G1 X13.041 Y99.367 E15.2391
G1 X48.243 Y98.765 E17.1361
G1 X48.243 Y97.131 E17.2241
G1 X48.353 Y96.867 E17.2395
G1 X49.727 Y95.493 E17.3442
G1 X49.991 Y95.383 E17.3597
G92 E0
G1 E-1.0000 F1800
G1 X66.011 Y139.213 F4800
G1 E0.0000 F1800
G92 E0
G1 X93.128 Y139.471 E1.4612 F1800
G1 X93.128 Y138.387 E1.5195
G1 X93.237 Y138.123 E1.5350
G1 X94.612 Y136.749 E1.6397
G1 X94.876 Y136.639 E1.6551
G1 X105.259 Y136.639 E2.2146
G1 X105.524 Y136.749 E2.2300
G1 X106.898 Y138.123 E2.3347
G1 X107.008 Y138.387 E2.3502
G1 X107.008 Y139.603 E2.4157
G1 X214.194 Y140.622 E8.1913
G1 X214.458 Y140.734 E8.2067
G1 X215.819 Y142.121 E8.3114
G1 X215.926 Y142.387 E8.3269
G1 X215.892 Y145.936 E8.5181
G1 X215.780 Y146.200 E8.5336
G1 X215.008 Y146.958 E8.5919
G1 X215.008 Y148.771 E8.6895
G1 X214.898 Y149.035 E8.7050
G1 X213.524 Y150.410 E8.8097
G1 X213.259 Y150.519 E8.8251
G1 X162.876 Y150.519 E11.5398
G1 X162.612 Y150.410 E11.5553
G1 X161.237 Y149.035 E11.6600
G1 X161.128 Y148.771 E11.6754
G1 X161.128 Y147.164 E11.7620
G1 X65.944 Y146.259 E16.8908
G1 X65.680 Y146.147 E16.9063
G1 X64.319 Y144.760 E17.0110
G1 X64.212 Y144.494 E17.0264
G1 X64.246 Y140.945 E17.2177
G1 X64.358 Y140.681 E17.2331
G1 X65.745 Y139.320 E17.3378
G1 X66.011 Y139.213 E17.3533
G1 X51.112 Y175.551 F4800
G92 E0
G1 X52.487 Y176.926 E0.1047 F1800
G1 X52.596 Y177.190 E0.1201
G1 X52.596 Y178.406 E0.1856
G1 X159.783 Y179.425 E5.9613
G1 X160.046 Y179.537 E5.9767
G1 X161.407 Y180.924 E6.0814
G1 X161.514 Y181.190 E6.0968
G1 X161.481 Y184.739 E6.2881
G1 X161.369 Y185.003 E6.3035
G1 X160.596 Y185.761 E6.3618
G1 X160.596 Y187.574 E6.4595
G1 X160.487 Y187.838 E6.4750
G1 X159.112 Y189.212 E6.5797
G1 X158.848 Y189.322 E6.5951
G1 X108.464 Y189.322 E9.3098
G1 X108.200 Y189.212 E9.3253
G1 X106.826 Y187.838 E9.4300
G1 X106.716 Y187.574 E9.4454
G1 X106.716 Y185.967 E9.5320
G1 X11.532 Y185.062 E14.6608
G1 X11.269 Y184.950 E14.6763
G1 X9.908 Y183.563 E14.7810
G1 X9.801 Y183.297 E14.7964
G1 X9.834 Y179.748 E14.9877
G1 X9.947 Y179.484 E15.0031
G1 X11.334 Y178.123 E15.1078
G1 X11.599 Y178.016 E15.1232
G1 X38.716 Y178.274 E16.5844
G1 X38.716 Y177.190 E16.6428
G1 X38.826 Y176.926 E16.6582
G1 X40.200 Y175.552 E16.7629
G1 X40.464 Y175.442 E16.7783
G1 X50.848 Y175.442 E17.3378
G1 X51.112 Y175.552 E17.3532
G1 X50.840 Y175.958 F4800
G92 E0
G1 X52.080 Y177.198 E0.0944 F1800
G1 X52.116 Y177.286 E0.0996
G1 X52.116 Y178.881 E0.1855
G1 X159.683 Y179.904 E5.9816
G1 X159.771 Y179.941 E5.9868
G1 X160.998 Y181.192 E6.0812
G1 X161.034 Y181.281 E6.0863
G1 X161.002 Y184.639 E6.2673
G1 X160.964 Y184.727 E6.2725
G1 X160.116 Y185.559 E6.3365
G1 X160.116 Y187.478 E6.4399
G1 X160.080 Y187.566 E6.4450
G1 X158.840 Y188.805 E6.5394
G1 X158.752 Y188.842 E6.5446
G1 X108.560 Y188.842 E9.2490
G1 X108.472 Y188.805 E9.2542
G1 X107.233 Y187.566 E9.3486
G1 X107.196 Y187.478 E9.3537
G1 X107.196 Y185.492 E9.4608
G1 X11.632 Y184.583 E14.6101
G1 X11.544 Y184.546 E14.6152
G1 X10.317 Y183.295 E14.7097
G1 X10.282 Y183.206 E14.7148
G1 X10.313 Y179.848 E14.8958
G1 X10.351 Y179.760 E14.9009
G1 X11.602 Y178.533 E14.9953
G1 X11.690 Y178.497 E15.0005
G1 X39.196 Y178.758 E16.4826
G1 X39.196 Y177.286 E16.5620
G1 X39.233 Y177.198 E16.5671
G1 X40.472 Y175.958 E16.6615
G1 X40.560 Y175.922 E16.6667
G1 X50.752 Y175.922 E17.2158
G1 X50.840 Y175.958 E17.2210
G1 X65.956 Y145.743 F4800
G92 E0
G1 X64.729 Y144.492 E0.0944 F1800
G1 X64.693 Y144.403 E0.0996
G1 X64.725 Y141.045 E0.2805
G1 X64.763 Y140.957 E0.2857
G1 X66.013 Y139.730 E0.3801
G1 X66.102 Y139.694 E0.3852
G1 X93.608 Y139.956 E1.8674
G1 X93.608 Y138.483 E1.9467
G1 X93.644 Y138.395 E1.9519
G1 X94.883 Y137.156 E2.0463
G1 X94.972 Y137.119 E2.0514
G1 X105.164 Y137.119 E2.6006
G1 X105.252 Y137.156 E2.6057
G1 X106.491 Y138.395 E2.7002
G1 X106.528 Y138.483 E2.7053
G1 X106.528 Y140.079 E2.7913
G1 X214.094 Y141.101 E8.5874
G1 X214.182 Y141.139 E8.5925
G1 X215.410 Y142.389 E8.6869
G1 X215.445 Y142.478 E8.6921
G1 X215.413 Y145.836 E8.8731
G1 X215.376 Y145.924 E8.8782
G1 X214.528 Y146.756 E8.9422
G1 X214.528 Y148.675 E9.0456
G1 X214.491 Y148.763 E9.0508
G1 X213.252 Y150.003 E9.1452
G1 X213.164 Y150.039 E9.1503
G1 X162.972 Y150.039 E11.8548
G1 X162.883 Y150.003 E11.8599
G1 X161.644 Y148.763 E11.9543
G1 X161.608 Y148.675 E11.9595
G1 X161.608 Y146.689 E12.0665
G1 X66.044 Y145.780 E17.2158
G1 X65.956 Y145.743 E17.2210
G92 E0
G1 E-1.0000 F1800
G1 X77.643 Y98.741 F4800
G1 E0.0000 F1800
G92 E0
G1 X161.122 Y97.312 E4.4986 F1800
G1 X161.211 Y97.347 E4.5038
G1 X162.471 Y98.564 E4.5982
G1 X162.509 Y98.652 E4.6034
G1 X162.567 Y102.010 E4.7843
G1 X162.532 Y102.099 E4.7895
G1 X161.314 Y103.359 E4.8839
G1 X161.227 Y103.397 E4.8890
G1 X21.643 Y105.787 E12.4111
G1 X21.643 Y107.419 E12.4990
G1 X21.607 Y107.507 E12.5042
G1 X20.367 Y108.747 E12.5986
G1 X20.279 Y108.783 E12.6037
G1 X14.087 Y108.783 E12.9374
G1 X13.999 Y108.747 E12.9425
G1 X12.760 Y107.507 E13.0369
G1 X12.723 Y107.419 E13.0421
G1 X12.723 Y105.474 E13.1469
G1 X11.900 Y104.678 E13.2086
G1 X11.862 Y104.591 E13.2137
G1 X11.805 Y101.233 E13.3947
G1 X11.840 Y101.144 E13.3998
G1 X13.057 Y99.884 E13.4942
G1 X13.145 Y99.846 E13.4994
G1 X48.723 Y99.236 E15.4167
G1 X48.723 Y97.227 E15.5250
G1 X48.760 Y97.139 E15.5301
G1 X49.999 Y95.900 E15.6245
G1 X50.087 Y95.863 E15.6297
G1 X76.279 Y95.863 E17.0409
G1 X76.367 Y95.900 E17.0461
G1 X77.607 Y97.139 E17.1405
G1 X77.643 Y97.227 E17.1457
G1 X77.643 Y98.741 E17.2272
G92 E0
G1 E-1.0000 F1800
G1 X80.860 Y62.227 F4800
G1 E0.0000 F1800
G92 E0
G1 X80.860 Y60.754 E0.0794 F1800
G1 X80.897 Y60.666 E0.0845
G1 X82.136 Y59.427 E0.1789
G1 X82.224 Y59.390 E0.1841
G1 X92.417 Y59.390 E0.7332
G1 X92.505 Y59.427 E0.7384
G1 X93.744 Y60.666 E0.8328
G1 X93.780 Y60.754 E0.8379
G1 X93.780 Y62.349 E0.9239
G1 X201.347 Y63.372 E6.7200
G1 X201.435 Y63.410 E6.7252
G1 X202.662 Y64.660 E6.8196
G1 X202.698 Y64.749 E6.8247
G1 X202.666 Y68.107 E7.0057
G1 X202.629 Y68.195 E7.0108
