; G-Code generated by Simplify3D(R) Version 4.0.0
; Apr 13, 2018 at 10:32:38 PM
; Settings Summary
;   processName,Process1
;   applyToModels,RL-PP_inter-Rosa(2)
;   profileName,PLA (modified)
;   profileVersion,2017-03-01 08:00:00
;   baseProfile,Default (modified)
;   printMaterial,PLA
;   printQuality,Medium
;   printExtruders,
;   extruderName,Primary Extruder
;   extruderToolheadNumber,0
;   extruderDiameter,0.35
;   extruderAutoWidth,0
;   extruderWidth,0.4
;   extrusionMultiplier,0.9
;   extruderUseRetract,1
;   extruderRetractionDistance,1
;   extruderExtraRestartDistance,0
;   extruderRetractionZLift,0
;   extruderRetractionSpeed,1800
;   extruderUseCoasting,0
;   extruderCoastingDistance,0.2
;   extruderUseWipe,0
;   extruderWipeDistance,5
;   primaryExtruder,0
;   layerHeight,0.2
;   topSolidLayers,3
;   bottomSolidLayers,3
;   perimeterOutlines,2
;   printPerimetersInsideOut,1
;   startPointOption,2
;   startPointOriginX,0
;   startPointOriginY,0
;   sequentialIslands,0
;   spiralVaseMode,0
;   firstLayerHeightPercentage,90
;   firstLayerWidthPercentage,100
;   firstLayerUnderspeed,0.5
;   useRaft,0
;   raftExtruder,0
;   raftTopLayers,3
;   raftBaseLayers,2
;   raftOffset,3
;   raftSeparationDistance,0.14
;   raftTopInfill,100
;   aboveRaftSpeedMultiplier,0.3
;   useSkirt,0
;   skirtExtruder,0
;   skirtLayers,1
;   skirtOutlines,2
;   skirtOffset,4
;   usePrimePillar,0
;   primePillarExtruder,999
;   primePillarWidth,12
;   primePillarLocation,7
;   primePillarSpeedMultiplier,1
;   useOozeShield,0
;   oozeShieldExtruder,999
;   oozeShieldOffset,2
;   oozeShieldOutlines,1
;   oozeShieldSidewallShape,1
;   oozeShieldSidewallAngle,30
;   oozeShieldSpeedMultiplier,1
;   infillExtruder,0
;   internalInfillPattern,Rectilinear
;   externalInfillPattern,Rectilinear
;   infillPercentage,0
;   outlineOverlapPercentage,15
;   infillExtrusionWidthPercentage,100
;   minInfillLength,5
;   infillLayerInterval,1
;   internalInfillAngles,45,-45
;   overlapInternalInfillAngles,0
;   externalInfillAngles,45,-45
;   generateSupport,1
;   supportExtruder,0
;   supportInfillPercentage,30
;   supportExtraInflation,0
;   supportBaseLayers,0
;   denseSupportExtruder,0
;   denseSupportLayers,0
;   denseSupportInfillPercentage,70
;   supportLayerInterval,1
;   supportHorizontalPartOffset,0.3
;   supportUpperSeparationLayers,1
;   supportLowerSeparationLayers,1
;   supportType,0
;   supportGridSpacing,4
;   maxOverhangAngle,45
;   supportAngles,0
;   temperatureName,Primary Extruder,HotBed
;   temperatureNumber,0,1
;   temperatureSetpointCount,1,1
;   temperatureSetpointLayers,1,1
;   temperatureSetpointTemperatures,190,60
;   temperatureStabilizeAtStartup,1,1
;   temperatureHeatedBed,0,1
;   temperatureRelayBetweenLayers,0,0
;   temperatureRelayBetweenLoops,0,0
;   fanLayers,1,2
;   fanSpeeds,0,100
;   blipFanToFullPower,0
;   adjustSpeedForCooling,1
;   minSpeedLayerTime,15
;   minCoolingSpeedSlowdown,20
;   increaseFanForCooling,0
;   minFanLayerTime,45
;   maxCoolingFanSpeed,100
;   increaseFanForBridging,0
;   bridgingFanSpeed,100
;   use5D,1
;   relativeEdistances,0
;   allowEaxisZeroing,1
;   independentExtruderAxes,0
;   includeM10123,0
;   stickySupport,1
;   applyToolheadOffsets,0
;   gcodeXoffset,0
;   gcodeYoffset,0
;   gcodeZoffset,0
;   overrideMachineDefinition,0
;   machineTypeOverride,0
;   strokeXoverride,200
;   strokeYoverride,200
;   strokeZoverride,200
;   originOffsetXoverride,0
;   originOffsetYoverride,0
;   originOffsetZoverride,0
;   homeXdirOverride,-1
;   homeYdirOverride,-1
;   homeZdirOverride,-1
;   flipXoverride,1
;   flipYoverride,-1
;   flipZoverride,1
;   toolheadOffsets,0,0|0,0|0,0|0,0|0,0|0,0
;   overrideFirmwareConfiguration,0
;   firmwareTypeOverride,RepRap (Marlin/Repetier/Sprinter)
;   GPXconfigOverride,r2
;   baudRateOverride,115200
;   overridePrinterModels,0
;   printerModelsOverride
;   startingGcode,G21	; valores metricos,G90	; posicionamiento absoluto,M82	; poner extrusor en modo absoluto,M107	; empezar con ventilador apagado,G28 X0 Y0	; mover x/y a 0,G1 F200 E3	;,G28,G29,G1 Z15.0 F{travel_speed}	;bajar la plataforma 15mm,G92 E0	;Zero en longitud de extrusion,G1 F200 E3	; extruir 3mm de filamento,G1 F{travel_speed},M117 Printing...,
;   layerChangeGcode,
;   retractionGcode,
;   toolChangeGcode,
;   endingGcode,G28 X0 Y0	; homing,M104 T0 S0 ; turn off extruder,M104 T1 S0 ; turn off hotbed,M140 S0 ; turn off bed,M84 ; disable motors,M106 S0 ,;Retraer filamento,;G92 E1,;G1 E-1 F300
;   exportFileFormat,gcode
;   celebration,0
;   celebrationSong,Random Song
;   postProcessing,
;   defaultSpeed,3600
;   outlineUnderspeed,0.5
;   solidInfillUnderspeed,0.8
;   supportUnderspeed,0.8
;   rapidXYspeed,4800
;   rapidZspeed,1000
;   minBridgingArea,50
;   bridgingExtraInflation,0
;   bridgingExtrusionMultiplier,1
;   bridgingSpeedMultiplier,1
;   useFixedBridgingAngle,0
;   fixedBridgingAngle,0
;   applyBridgingToPerimeters,0
;   filamentDiameters,1.75|1.75|1.75|1.75|1.75|1.75
;   filamentPricesPerKg,46|46|46|46|46|46
;   filamentDensities,1.25|1.25|1.25|1.25|1.25|1.25
;   useMinPrintHeight,0
;   minPrintHeight,0
;   useMaxPrintHeight,0
;   maxPrintHeight,0
;   useDiaphragm,0
;   diaphragmLayerInterval,20
;   robustSlicing,1
;   mergeAllIntoSolid,0
;   onlyRetractWhenCrossingOutline,1
;   retractBetweenLayers,1
;   useRetractionMinTravel,0
;   retractionMinTravel,3
;   retractWhileWiping,0
;   onlyWipeOutlines,1
;   avoidCrossingOutline,0
;   maxMovementDetourFactor,3
;   toolChangeRetractionDistance,12
;   toolChangeExtraRestartDistance,-0.5
;   toolChangeRetractionSpeed,600
;   externalThinWallType,0
;   internalThinWallType,2
;   thinWallAllowedOverlapPercentage,10
;   singleExtrusionMinLength,1
;   singleExtrusionMinPrintingWidthPercentage,50
;   singleExtrusionMaxPrintingWidthPercentage,200
;   singleExtrusionEndpointExtension,0.2
;   horizontalSizeCompensation,0
G90
M82
M106 S0
M140 S60
M190 S60
M104 S190 T0
M109 S190 T0
G21	; valores metricos
G90	; posicionamiento absoluto
M82	; poner extrusor en modo absoluto
M107	; empezar con ventilador apagado
G28 X0 Y0	; mover x/y a 0
G1 F200 E3	;
G28
G29
G1 Z15.0 F{travel_speed}	;bajar la plataforma 15mm
G92 E0	;Zero en longitud de extrusion
G1 F200 E3	; extruir 3mm de filamento
G1 F{travel_speed}
M117 Printing...
G92 E0
G1 E-1.0000 F1800
G1 Z0.180 F1000
; process Process1
; layer 1, Z = 0.180
T0
; tool H0.200 W0.400
; support
G1 X95.980 Y88.000 F4800
G1 E0.0000 F540
G92 E0
G1 X104.020 Y88.000 E0.2407 F803
G1 X104.020 Y89.333 E0.2806
G1 X95.980 Y89.333 E0.5213
G1 X95.980 Y90.667 E0.5612
G1 X104.020 Y90.667 E0.8018
G1 X104.020 Y91.980 E0.8411
G1 X108.020 Y91.980 E0.9609
G1 X108.020 Y92.000 E0.9615
G1 X95.980 Y92.000 E1.3219
G1 X95.980 Y92.020 E1.3225
G1 X103.980 Y92.020 E1.5620
G1 X103.980 Y93.333 E1.6013
G1 X108.020 Y93.333 E1.7222
G1 X108.020 Y94.667 E1.7621
G1 X103.980 Y94.667 E1.8831
G1 X103.980 Y96.000 E1.9230
G1 X108.020 Y96.000 E2.0439
G92 E0
G1 E-1.0000 F1800
G1 X103.980 Y100.000 F4800
G1 E0.0000 F1800
G92 E0
G1 X108.020 Y100.000 E0.1209 F803
G1 X108.020 Y101.333 E0.1608
G1 X103.980 Y101.333 E0.2818
G92 E0
G1 E-1.0000 F1800
G1 X91.980 Y100.000 F4800
G1 E0.0000 F1800
G92 E0
G1 X96.020 Y100.000 E0.1209 F803
G1 X96.020 Y101.333 E0.1608
G1 X91.980 Y101.333 E0.2818
G1 X91.980 Y102.667 E0.3217
G1 X96.020 Y102.667 E0.4426
G1 X96.020 Y103.980 E0.4819
G1 X103.980 Y103.980 E0.7202
G1 X103.980 Y102.667 E0.7595
G1 X108.020 Y102.667 E0.8805
G1 X108.020 Y104.000 E0.9204
G1 X91.980 Y104.000 E1.4005
G1 X91.980 Y104.020 E1.4011
G1 X95.980 Y104.020 E1.5209
G1 X95.980 Y105.333 E1.5602
G1 X108.020 Y105.333 E1.9206
G1 X108.020 Y106.667 E1.9605
G1 X95.980 Y106.667 E2.3209
G1 X95.980 Y108.000 E2.3608
G1 X108.020 Y108.000 E2.7212
G1 X108.020 Y108.020 E2.7218
G1 X104.020 Y108.020 E2.8415
G1 X104.020 Y109.333 E2.8809
G1 X95.980 Y109.333 E3.1215
G1 X95.980 Y110.667 E3.1614
G1 X104.020 Y110.667 E3.4021
G1 X104.020 Y112.000 E3.4420
G1 X95.980 Y112.000 E3.6827
G92 E0
G1 E-1.0000 F1800
; layer 2, Z = 0.380
M106 S255
; outer perimeter
G1 X99.107 Y101.738 F4800
G1 Z0.380 F1000
G1 E0.0000 F1800
G92 E0
G1 X98.461 Y101.491 E0.0207 F522
G1 X101.058 Y101.491 E0.0984
G1 X99.107 Y101.738 E0.1573
G92 E0
G1 E-1.0000 F1800
; support
G1 X104.076 Y101.333 F4800
G1 E0.0000 F1800
G92 E0
G1 X108.020 Y101.333 E0.1181 F836
G1 X108.020 Y100.000 E0.1580
G1 X103.980 Y100.000 E0.2789
G92 E0
G1 E-1.0000 F1800
G1 X108.020 Y96.000 F4800
G1 E0.0000 F1800
G92 E0
G1 X103.980 Y96.000 E0.1209 F836
G1 X103.980 Y94.667 E0.1608
G1 X108.020 Y94.667 E0.2818
G1 X108.020 Y93.333 E0.3217
G1 X103.980 Y93.333 E0.4426
G1 X103.980 Y92.020 E0.4819
G1 X95.980 Y92.020 E0.7214
G1 X95.980 Y92.000 E0.7220
G1 X108.020 Y92.000 E1.0824
G1 X108.020 Y91.980 E1.0830
G1 X104.020 Y91.980 E1.2028
G1 X104.020 Y90.667 E1.2421
G1 X95.980 Y90.667 E1.4827
G1 X95.980 Y89.333 E1.5226
G1 X104.020 Y89.333 E1.7633
G1 X104.020 Y88.000 E1.8032
G1 X95.980 Y88.000 E2.0439
G92 E0
G1 E-1.0000 F1800
G1 X91.980 Y100.000 F4800
G1 E0.0000 F1800
G92 E0
G1 X96.020 Y100.000 E0.1209 F836
G1 X96.020 Y100.791 E0.1446
G1 X95.766 Y100.791 E0.1522
G1 X95.663 Y101.333 E0.1687
G1 X91.980 Y101.333 E0.2790
G1 X91.980 Y102.667 E0.3189
G1 X96.020 Y102.667 E0.4398
G1 X96.020 Y103.980 E0.4791
G1 X103.980 Y103.980 E0.7174
G1 X103.980 Y102.667 E0.7567
G1 X108.020 Y102.667 E0.8777
G1 X108.020 Y104.000 E0.9176
G1 X91.980 Y104.000 E1.3977
G1 X91.980 Y104.020 E1.3983
G1 X95.980 Y104.020 E1.5181
G1 X95.980 Y105.333 E1.5574
G1 X108.020 Y105.333 E1.9178
G1 X108.020 Y106.667 E1.9577
G1 X95.980 Y106.667 E2.3181
G1 X95.980 Y108.000 E2.3580
G1 X108.020 Y108.000 E2.7184
G1 X108.020 Y108.020 E2.7190
G1 X104.020 Y108.020 E2.8387
G1 X104.020 Y109.333 E2.8781
G1 X95.980 Y109.333 E3.1187
G1 X95.980 Y110.667 E3.1586
G1 X104.020 Y110.667 E3.3993
G1 X104.020 Y112.000 E3.4392
G1 X95.980 Y112.000 E3.6799
G92 E0
G1 E-1.0000 F1800
; layer 3, Z = 0.580
; outer perimeter
G1 X99.124 Y102.195 F4800
G1 Z0.580 F1000
G1 E0.0000 F1800
G92 E0
G1 X97.267 Y101.491 E0.0595 F545
G1 X102.848 Y101.491 E0.2265
G1 X102.368 Y101.792 E0.2435
G1 X99.124 Y102.195 E0.3413
G92 E0
G1 E-1.0000 F1800
; support
G1 X103.980 Y100.000 F4800
G1 E0.0000 F1800
G92 E0
G1 X108.020 Y100.000 E0.1209 F872
G1 X108.020 Y101.333 E0.1608
G1 X104.785 Y101.333 E0.2577
G92 E0
G1 E-1.0000 F1800
G1 X108.020 Y96.000 F4800
G1 E0.0000 F1800
G92 E0
G1 X103.980 Y96.000 E0.1209 F872
G1 X103.980 Y94.667 E0.1608
G1 X108.020 Y94.667 E0.2818
G1 X108.020 Y93.333 E0.3217
G1 X103.980 Y93.333 E0.4426
G1 X103.980 Y92.020 E0.4819
G1 X95.980 Y92.020 E0.7214
G1 X95.980 Y92.000 E0.7220
G1 X108.020 Y92.000 E1.0824
G1 X108.020 Y91.980 E1.0830
G1 X104.020 Y91.980 E1.2028
G1 X104.020 Y90.667 E1.2421
G1 X95.980 Y90.667 E1.4827
G1 X95.980 Y89.333 E1.5226
G1 X104.020 Y89.333 E1.7633
G1 X104.020 Y88.000 E1.8032
G1 X95.980 Y88.000 E2.0439
G92 E0
G1 E-1.0000 F1800
G1 X91.980 Y100.000 F4800
G1 E0.0000 F1800
G92 E0
G1 X96.020 Y100.000 E0.1209 F872
G1 X96.020 Y100.791 E0.1446
G1 X95.049 Y100.791 E0.1737
G1 X94.846 Y101.333 E0.1910
G1 X91.980 Y101.333 E0.2768
G1 X91.980 Y102.667 E0.3167
G1 X96.020 Y102.667 E0.4376
G1 X96.020 Y103.980 E0.4770
G1 X103.980 Y103.980 E0.7152
G1 X103.980 Y102.667 E0.7545
G1 X108.020 Y102.667 E0.8755
G1 X108.020 Y104.000 E0.9154
G1 X91.980 Y104.000 E1.3955
G1 X91.980 Y104.020 E1.3961
G1 X95.980 Y104.020 E1.5159
G1 X95.980 Y105.333 E1.5552
G1 X108.020 Y105.333 E1.9156
G1 X108.020 Y106.667 E1.9555
G1 X95.980 Y106.667 E2.3159
G1 X95.980 Y108.000 E2.3558
G1 X108.020 Y108.000 E2.7162
G1 X108.020 Y108.020 E2.7168
G1 X104.020 Y108.020 E2.8366
G1 X104.020 Y109.333 E2.8759
G1 X95.980 Y109.333 E3.1165
G1 X95.980 Y110.667 E3.1565
G1 X104.020 Y110.667 E3.3971
G1 X104.020 Y112.000 E3.4370
G1 X95.980 Y112.000 E3.6777
G92 E0
G1 E-1.0000 F1800
; layer 4, Z = 0.780
; outer perimeter
G1 X99.141 Y102.642 F4800
G1 Z0.780 F1000
G1 E0.0000 F1800
G92 E0
G1 X96.335 Y101.599 E0.0896 F576
G1 X96.054 Y101.491 E0.0986
G1 X103.552 Y101.491 E0.3230
G1 X102.323 Y102.255 E0.3664
G1 X99.141 Y102.642 E0.4623
; gap fill
G1 X98.109 Y101.891 F4800
G92 E0
G1 X98.165 Y101.835 E0.0024 F922
G1 X98.730 Y101.835 E0.0193
G1 X98.521 Y102.045 E0.0282
G1 X98.934 Y102.198 E0.0413
G1 X99.296 Y101.835 E0.0567
G1 X99.862 Y101.835 E0.0736
G1 X99.438 Y102.259 E0.0916
G1 X100.082 Y102.181 E0.1110
G1 X100.427 Y101.835 E0.1256
G1 X100.993 Y101.835 E0.1426
G1 X100.726 Y102.102 E0.1539
G1 X101.370 Y102.024 E0.1733
G1 X101.559 Y101.835 E0.1813
G1 X102.125 Y101.835 E0.1982
G1 X102.014 Y101.946 E0.2029
G92 E0
G1 E-1.0000 F1800
; support
G1 X103.980 Y100.000 F4800
G1 E0.0000 F1800
G92 E0
G1 X108.020 Y100.000 E0.1209 F922
G1 X108.020 Y101.333 E0.1608
G1 X105.494 Y101.333 E0.2364
G92 E0
G1 E-1.0000 F1800
G1 X108.020 Y96.000 F4800
G1 E0.0000 F1800
G92 E0
G1 X103.980 Y96.000 E0.1209 F922
G1 X103.980 Y94.667 E0.1608
G1 X108.020 Y94.667 E0.2818
G1 X108.020 Y93.333 E0.3217
G1 X103.980 Y93.333 E0.4426
G1 X103.980 Y92.020 E0.4819
G1 X95.980 Y92.020 E0.7214
G1 X95.980 Y92.000 E0.7220
G1 X108.020 Y92.000 E1.0824
G1 X108.020 Y91.980 E1.0830
G1 X104.020 Y91.980 E1.2028
G1 X104.020 Y90.667 E1.2421
G1 X95.980 Y90.667 E1.4827
G1 X95.980 Y89.333 E1.5226
G1 X104.020 Y89.333 E1.7633
G1 X104.020 Y88.000 E1.8032
G1 X95.980 Y88.000 E2.0439
G92 E0
G1 E-1.0000 F1800
G1 X91.980 Y100.000 F4800
G1 E0.0000 F1800
G92 E0
G1 X96.020 Y100.000 E0.1209 F922
G1 X96.020 Y100.791 E0.1446
G1 X94.565 Y100.791 E0.1882
G1 X94.362 Y101.333 E0.2055
G1 X91.980 Y101.333 E0.2768
G1 X91.980 Y102.667 E0.3167
G1 X95.994 Y102.667 E0.4369
G1 X96.020 Y102.676 E0.4377
G1 X96.020 Y103.980 E0.4767
G1 X103.980 Y103.980 E0.7150
G1 X103.980 Y102.667 E0.7543
G1 X108.020 Y102.667 E0.8752
G1 X108.020 Y104.000 E0.9152
G1 X91.980 Y104.000 E1.3953
G1 X91.980 Y104.020 E1.3959
G1 X95.980 Y104.020 E1.5156
G1 X95.980 Y105.333 E1.5549
G1 X108.020 Y105.333 E1.9154
G1 X108.020 Y106.667 E1.9553
G1 X95.980 Y106.667 E2.3157
G1 X95.980 Y108.000 E2.3556
G1 X108.020 Y108.000 E2.7160
G1 X108.020 Y108.020 E2.7166
G1 X104.020 Y108.020 E2.8363
G1 X104.020 Y109.333 E2.8756
G1 X95.980 Y109.333 E3.1163
G1 X95.980 Y110.667 E3.1562
G1 X104.020 Y110.667 E3.3969
G1 X104.020 Y112.000 E3.4368
G1 X95.980 Y112.000 E3.6775
G92 E0
G1 E-1.0000 F1800
; layer 5, Z = 0.980
; inner perimeter
G1 X99.206 Y102.673 F4800
G1 Z0.980 F1000
G1 E0.0000 F1800
G92 E0
G1 X97.885 Y102.188 E0.0421 F867
G1 X97.938 Y101.891 E0.0511
G1 X102.347 Y101.891 E0.1831
G1 X102.420 Y102.155 E0.1913
G1 X102.145 Y102.321 E0.2009
G1 X99.206 Y102.673 E0.2896
; outer perimeter
G1 X99.158 Y103.081 F4800
G92 E0
G1 X95.910 Y101.890 E0.1035 F578
G1 X95.609 Y101.635 E0.1154
G1 X95.445 Y101.491 E0.1219
G1 X104.265 Y101.491 E0.3859
G1 X103.464 Y101.992 E0.4142
G1 X102.278 Y102.708 E0.4556
G1 X99.158 Y103.081 E0.5497
; gap fill
G1 X97.555 Y102.080 F4800
G92 E0
G1 X97.310 Y101.835 E0.0104 F925
G1 X102.967 Y101.835 F4800
G92 E0
G1 X103.001 Y101.869 E0.0014 F925
; solid layer
G1 X99.969 Y102.231 F4800
G92 E0
G1 X99.975 Y102.238 E0.0003 F925
G1 X99.470 Y102.298 E0.0155
G1 X99.403 Y102.231 E0.0184
G92 E0
G1 E-1.0000 F1800
; support
G1 X101.013 Y104.000 F4800
G1 E0.0000 F1800
G92 E0
G1 X108.020 Y104.000 E0.2098 F925
G1 X108.020 Y102.667 E0.2497
G1 X104.408 Y102.667 E0.3578
G1 X104.538 Y102.589 E0.3623
G1 X106.256 Y101.516 E0.4230
G1 X106.204 Y101.333 E0.4286
G1 X108.020 Y101.333 E0.4830
G1 X108.020 Y100.000 E0.5229
G1 X103.980 Y100.000 E0.6439
G92 E0
G1 E-1.0000 F1800
G1 X108.020 Y96.000 F4800
G1 E0.0000 F1800
G92 E0
